X:1
T:Title
L:1/8
M:2/2
K:A
V:1 treble nm="Midi_1"
V:1
 E2 | A2 (GF)"^Descant to Ellacombe (AMNS 75)" E2 A2 | (C2 D2) E2 E2 | %3
w: Now|let the * heav'ns be|joy * ful, and|
 (FG) A2"^Andrew Sims" B2 B2 | c6 E2 | A2 (GF) E2 A2 | (C2 D2) E2 E2 | (FG) A2 B2 (ed) | c6 (AB) | %9
w: earth * her song be-|gin, the|round world * keep high|tri * umph, and|all * that is there- *|in; let *|
 c2 B2 c2 d2 | (ef e2) e2 (cd) | e3 e f2 f2 | e6 B2 | (Ac) d2 e2 c2 | (e2 f2) =g2 g2 | %15
w: all things seen and|un * * seen their *|notes of glad- ness|blend, for|Christ * the Lord is|ri * sen, our|
"^To fit harmony by Noel Rawsthorne\n\n14 April 2019" f2 e2 d2 (cB) | c6 |] %17
w: joy that hath no *|end.|

